X: 1473
T: Neş`esi Rûmî Nihavend`in
C: Ahmet Avni Konuk
O: Turkey
F: http://compmusic.upf.edu/node/140
N: nihavendirumi--kupe--devrirevanihindi--nesesi--ahmet_avni_konuk
N: makam= nihavendirumi
N: form= kupe
N: usul= devrirevanihindi = 14/8
M: 14/8
L: 1/16
K: C _B _e  
Q: 1/4=102
%%MIDI tuningsystem comma53
G4 d2d2 d2de dcc2 d2c2 cBBA B2z2  | \
w:  Neş e si  *  *  *  *  *  Ru  | 
A2B2 c2cB BAAG G^FG2 F2AG G6z2  | 
w:  mî  *  Ni hâ *  *  *  *  *  *  *  ven  | 
d4 e2^f2 efag fed4a2 a2ga b2ag  | \
w:  din  gö nül *  *  *  *  *  *  de   | 
^f4 d2fe ed^cd e/f/e/d/d6 z8  | 
w:  ber *  *  *  *  *  ka *  *  *  *  *  râr    | 
d2f2 f2f2 fed2 g2g2 f2e2 d2dc dcB2  | \
w:  Mec *  li si  *  *  *  *  ehl_  | 
c2d2 e2ed dccB BAdc B2A2 AGG^F G4  | 
w:  i  *  ta rab *  *  *  *  *  *  *  da   | 
G4 A2^F3ED4G4A2 B2c2 d4  | B3A G2Ac BAAG G^FG2 F2AG G6z2  | 
w:  bu  ma ka *  *  mın   |  zev *  *  *  *  *  *  ki  *  *  *  var    | 
|


